X: 1
T:Last Night's Fun
T:Scle/ip na hOiche Are/ir
S:Mary Bergin's recording on Feadoga Stain
D:Mary Bergin: _Feado/ga Sta/in_ (Shanachie 79006)
N:transcribed by Alan Ng
Z: id:ng-reels-12 transcribed by Alan Ng agng@students.wisc.edu August 25, 1996
E:10
M:C|
K:D
|:AD {G}ED ~A3 B|AD {G}ED EFGB|AD {G}ED {B}A2 (3ABc|1d2 {g}fe dBBd:|2d2 {g}fe dBBA|*
|:df ~f2 af ~f2|defd ~e3 f|1df ~f2 af ~f2|d2 fe dBAB:|2 ~a3 b afeg|fedB BcdB|]**
